communes/181.svg

<?xml version="1.0" encoding="UTF-8" standalone="no"?>
<svg
   xmlns:dc="http://purl.org/dc/elements/1.1/"
   xmlns:cc="http://creativecommons.org/ns#"
   xmlns:rdf="http://www.w3.org/1999/02/22-rdf-syntax-ns#"
   xmlns:svg="http://www.w3.org/2000/svg"
   xmlns="http://www.w3.org/2000/svg"
   xmlns:sodipodi="http://sodipodi.sourceforge.net/DTD/sodipodi-0.dtd"
   xmlns:inkscape="http://www.inkscape.org/namespaces/inkscape"
   version="1.0"
   width="226.42949"
   height="265.22687"
   id="svg2780"
   sodipodi:docname="181.svg">
  <metadata
     id="metadata10">
    <rdf:RDF>
      <cc:Work
         rdf:about="">
        <dc:format>image/svg+xml</dc:format>
        <dc:type
           rdf:resource="http://purl.org/dc/dcmitype/StillImage" />
      </cc:Work>
    </rdf:RDF>
  </metadata>
  <sodipodi:namedview
     pagecolor="#ffffff"
     bordercolor="#666666"
     borderopacity="1"
     objecttolerance="10"
     gridtolerance="10"
     guidetolerance="10"
     inkscape:pageopacity="0"
     inkscape:pageshadow="2"
     inkscape:window-width="640"
     inkscape:window-height="480"
     id="namedview8" />
  <defs
     id="defs2782" />
  <path
     d="M 1,1.0000082 L 5.0805319,172.40354 C 7.9951903,294.83465 218.43429,294.83465 221.34896,172.40354 L 225.42949,1.0000082 L 1,1.0000082 z "
     style="fill:#c6311f;fill-opacity:1;fill-rule:evenodd;stroke:#000000;stroke-width:2;stroke-linecap:butt;stroke-miterlimit:4;stroke-dashoffset:0;stroke-opacity:1"
     id="path3282" />
  <path
     d="M 157.61773,186.16659 C 157.61773,210.67709 137.72519,230.56959 113.21474,230.56959 C 88.704303,230.56959 68.811763,210.67709 68.811763,186.16659 C 68.811763,161.65617 88.704303,141.76363 113.21474,141.76363 C 137.72519,141.76363 157.61773,161.65617 157.61773,186.16659 z M 141.75953,186.16659 C 141.75953,201.92339 128.97146,214.71139 113.21474,214.71139 C 97.458032,214.71139 84.669973,201.92339 84.669973,186.16659 C 84.669973,170.4099 97.458032,157.62184 113.21474,157.62184 C 128.97146,157.62184 141.75953,170.4099 141.75953,186.16659 z "
     style="color:#000000;fill:#ffffff;fill-opacity:1;fill-rule:evenodd;stroke:#000000;stroke-width:1.92063487;stroke-linecap:butt;stroke-linejoin:miter;marker:none;marker-start:none;marker-mid:none;marker-end:none;stroke-miterlimit:4;stroke-dashoffset:0;stroke-opacity:1;visibility:visible;display:inline;overflow:visible;enable-background:accumulate"
     id="path23675" />
  <path
     d="M 209.82819,84.32576 C 209.82819,108.83626 189.93565,128.72876 165.42521,128.72876 C 140.91477,128.72876 121.02223,108.83626 121.02223,84.32576 C 121.02223,59.81534 140.91477,39.9228 165.42521,39.9228 C 189.93565,39.9228 209.82819,59.81534 209.82819,84.32576 z M 193.97,84.32576 C 193.97,100.08256 181.18193,112.87056 165.42521,112.87056 C 149.6685,112.87056 136.88044,100.08256 136.88044,84.32576 C 136.88044,68.56907 149.6685,55.78101 165.42521,55.78101 C 181.18193,55.78101 193.97,68.56907 193.97,84.32576 z "
     style="color:#000000;fill:#ffffff;fill-opacity:1;fill-rule:evenodd;stroke:#000000;stroke-width:1.92063487;stroke-linecap:butt;stroke-linejoin:miter;marker:none;marker-start:none;marker-mid:none;marker-end:none;stroke-miterlimit:4;stroke-dashoffset:0;stroke-opacity:1;visibility:visible;display:inline;overflow:visible;enable-background:accumulate"
     id="use24651" />
  <path
     d="M 105.40726,84.32576 C 105.40726,108.83626 85.514725,128.72876 61.004275,128.72876 C 36.493838,128.72876 16.601298,108.83626 16.601298,84.32576 C 16.601298,59.81534 36.493838,39.9228 61.004275,39.9228 C 85.514725,39.9228 105.40726,59.81534 105.40726,84.32576 z M 89.549065,84.32576 C 89.549065,100.08256 76.760995,112.87056 61.004275,112.87056 C 45.247567,112.87056 32.459508,100.08256 32.459508,84.32576 C 32.459508,68.56907 45.247567,55.78101 61.004275,55.78101 C 76.760995,55.78101 89.549065,68.56907 89.549065,84.32576 z "
     style="color:#000000;fill:#ffffff;fill-opacity:1;fill-rule:evenodd;stroke:#000000;stroke-width:1.92063487;stroke-linecap:butt;stroke-linejoin:miter;marker:none;marker-start:none;marker-mid:none;marker-end:none;stroke-miterlimit:4;stroke-dashoffset:0;stroke-opacity:1;visibility:visible;display:inline;overflow:visible;enable-background:accumulate"
     id="use24653" />
</svg>

<?xml version="1.0" encoding="UTF-8"?>
<svg version="1.0" viewBox="0 0 226.43 265.23" xmlns="http://www.w3.org/2000/svg" xmlns:cc="http://creativecommons.org/ns#" xmlns:dc="http://purl.org/dc/elements/1.1/" xmlns:rdf="http://www.w3.org/1999/02/22-rdf-syntax-ns#">
<metadata>
<rdf:RDF>
<cc:Work rdf:about="">
<dc:format>image/svg+xml</dc:format>
<dc:type rdf:resource="http://purl.org/dc/dcmitype/StillImage"/>
</cc:Work>
</rdf:RDF>
</metadata>
<path d="m1 1 4.0805 171.4c2.9147 122.43 213.35 122.43 216.27 0l4.0805-171.4h-224.43z" fill="#c6311f" fill-rule="evenodd" stroke="#000" stroke-width="2"/>
<path d="m157.62 186.17c0 24.51-19.893 44.403-44.403 44.403-24.51 0-44.403-19.892-44.403-44.403 0-24.51 19.893-44.403 44.403-44.403 24.51 0 44.403 19.893 44.403 44.403zm-15.858 0c0 15.757-12.788 28.545-28.545 28.545-15.757 0-28.545-12.788-28.545-28.545 0-15.757 12.788-28.545 28.545-28.545 15.757 0 28.545 12.788 28.545 28.545z" color="#000000" fill="#fff" fill-rule="evenodd" stroke="#000" stroke-width="1.9206"/>
<path d="m209.83 84.326c0 24.51-19.893 44.403-44.403 44.403s-44.403-19.892-44.403-44.403c0-24.51 19.893-44.403 44.403-44.403s44.403 19.893 44.403 44.403zm-15.858 0c0 15.757-12.788 28.545-28.545 28.545-15.757 0-28.545-12.788-28.545-28.545 0-15.757 12.788-28.545 28.545-28.545 15.757 0 28.545 12.788 28.545 28.545z" color="#000000" fill="#fff" fill-rule="evenodd" stroke="#000" stroke-width="1.9206"/>
<path d="m105.41 84.326c0 24.51-19.893 44.403-44.403 44.403-24.51 0-44.403-19.892-44.403-44.403 0-24.51 19.893-44.403 44.403-44.403 24.51 0 44.403 19.893 44.403 44.403zm-15.858 0c0 15.757-12.788 28.545-28.545 28.545-15.757 0-28.545-12.788-28.545-28.545 0-15.757 12.788-28.545 28.545-28.545 15.757 0 28.545 12.788 28.545 28.545z" color="#000000" fill="#fff" fill-rule="evenodd" stroke="#000" stroke-width="1.9206"/>
</svg>
